coreui/free/cil-monitor.svg

<svg xmlns="http://www.w3.org/2000/svg" viewBox="0 0 512 512">
  <path fill="var(--ci-primary-color, currentColor)" d="M472,16H40A24.028,24.028,0,0,0,16,40V376a24.028,24.028,0,0,0,24,24H240v64H160v32H352V464H272V400H472a24.028,24.028,0,0,0,24-24V40A24.028,24.028,0,0,0,472,16Zm-8,352H48V272H464Zm0-128H48V48H464Z" class="ci-primary"/>
  <rect width="32" height="32" x="400" y="304" fill="var(--ci-primary-color, currentColor)" class="ci-primary"/>
</svg>

<svg viewBox="0 0 512 512" xmlns="http://www.w3.org/2000/svg"><g><path d="M472 16H40v0c-13.25.01-23.99 10.75-24 24v336 0c.01 13.24 10.75 23.98 24 24h200v64h-80v32h192v-32h-80v-64h200 -.001c13.24-.02 23.98-10.76 24-24V40v0c-.02-13.25-10.76-23.99-24-24Zm-8 352H48v-96h416Zm0-128H48V48h416Z"/><path d="M400 304h32v32h-32Z"/></g></svg>
